X: 30376
T: Old Queen, The
R: waltz
M: 3/4
K: Dmajor
B =c^c|:Sd3 e dc/B/|c2 A2 Bc|d3 e dB|c3 A GF|ED EF GA|
{A}B2 BA GF|FE FG AB|A3 A Bc|d3 e dc/B/|c2 A2 Bc|
d3 e dB|c3 A GF|ED EF GA|{A}B3 A GF|ED E2 FE|1 D4 Bc:|2 D2 a2 a2||
|:ag e4|gf d4|AB cd ef|e/f/e d3 b|a^g e4|
fd B3A|1 ^GB ^dB ^GB|{B}c3 A ce:|2 ^Gd ed ^Gd|A3 A "@-2,25 D.S."Bc||["Last time"A4||

